!!!OTL: ICH FUHR EINSTMALS AUF STILLER SEE
!!!ARE: Europa, Mitteleuropa, Deutschland, Odenwald
!!!SCT: E0079
!!!YEM: Copyright 1995, estate of Helmut Schaffrath.
**kern
*ICvox
*Ivox
*M4/4
*k[b-]
*F:
{8f
8a
8g
=1
8g
4f
8dd
4.cc
8b-
=2
4b-
4a
4r}
{8a
8b-
=3
4.cc
8a
8dd
8cc
8b-
8a
=4
8a
8g
4g
4g}
{8f
8a
=5
4cc
4cc
8cc
4ff
8dd
=6
8dd
8cc
4cc
4cc
8b-}
{8a
=7
4b-
4b-
8b-
8dd
8cc
8b-
=8
4a
4cc
4cc}
{8f
8a
=9
4cc
4cc
8cc
4ff
8dd
=10
8dd
8cc
4cc
4cc
8b-}
{8a
=11
4b-
4b-
8b-
8dd
8cc
8b-
=12
4a
4cc
8cc}
==
!!!AGN: erzaehlendes Volks - Lied, Sage, Liebe, Ballade ?
!!!ONB: ESAC (Essen Associative Code) Database: ERK1
!!!AMT: simple quadruple
!!!AIN: vox
!!!EED: Helmut Schaffrath
!!!EEV: 1.0
*-
